Hatter-kde-dark/actions/24/align-vertical-node.svg

<?xml version="1.0" encoding="UTF-8"?>
<svg viewBox="0 0 24 24" xmlns="http://www.w3.org/2000/svg">
 <defs id="defs3051">
  <style id="current-color-scheme" type="text/css">.ColorScheme-Text {
        color:#dedede;
      }
      .ColorScheme-Highlight {
        color:#3daee9;
      }</style>
 </defs>
 <path class="ColorScheme-Text" d="m10 3v4h4v-4h-4zm1 1h2v2h-2v-2zm-7 7v1h1v-1h-1zm3 0v1h1v-1h-1zm3 0v1h1v-1h-1zm3 0v1h1v-1h-1zm3 0v1h1v-1h-1zm3 0v1h1v-1h-1zm-15 5v4h4v-4h-4zm12 0v4h4v-4h-4zm-11 1h2v2h-2v-2zm12 0h2v2h-2v-2z" fill="currentColor"/>
 <path class="ColorScheme-Highlight" d="m10 8 2 3 2-3h-4zm-4 4-2 3h4l-2-3zm12 0-2 3h4l-2-3z" fill="currentColor"/>
</svg>

<svg xmlns="http://www.w3.org/2000/svg" viewBox="0 0 24 24">
  <defs id="defs3051">
    <style type="text/css" id="current-color-scheme">
      .ColorScheme-Text {
        color:#dedede;
      }
      .ColorScheme-Highlight {
        color:#3daee9;
      }
      </style>
  </defs>
 <path 
     style="fill:currentColor;fill-opacity:1;stroke:none" 
     d="M 10 3 L 10 7 L 14 7 L 14 3 L 10 3 z M 11 4 L 13 4 L 13 6 L 11 6 L 11 4 z M 4 11 L 4 12 L 5 12 L 5 11 L 4 11 z M 7 11 L 7 12 L 8 12 L 8 11 L 7 11 z M 10 11 L 10 12 L 11 12 L 11 11 L 10 11 z M 13 11 L 13 12 L 14 12 L 14 11 L 13 11 z M 16 11 L 16 12 L 17 12 L 17 11 L 16 11 z M 19 11 L 19 12 L 20 12 L 20 11 L 19 11 z M 4 16 L 4 20 L 8 20 L 8 16 L 4 16 z M 16 16 L 16 20 L 20 20 L 20 16 L 16 16 z M 5 17 L 7 17 L 7 19 L 5 19 L 5 17 z M 17 17 L 19 17 L 19 19 L 17 19 L 17 17 z "
     class="ColorScheme-Text"
     />
 <path 
     style="fill:currentColor;fill-opacity:1;stroke:none" 
     d="M 10 8 L 12 11 L 14 8 L 10 8 z M 6 12 L 4 15 L 8 15 L 6 12 z M 18 12 L 16 15 L 20 15 L 18 12 z "
     class="ColorScheme-Highlight"
     />
</svg>
